src/assets/outline/Receipt21.svg

<svg width="24" height="24" viewBox="0 0 24 24"  xmlns="http://www.w3.org/2000/svg">
<path d="M12 22.75C11.22 22.75 10.46 22.35 9.94 21.65L8.93 20.3C8.72 20.02 8.44 19.86 8.14 19.84C7.84 19.83 7.54 19.96 7.3 20.21L6.73 19.7L7.28 20.21C5.84 21.75 4.73 21.63 4.2 21.42C3.66 21.21 2.75 20.52 2.75 18.3V7.04C2.75 2.6 4.03 1.25 8.22 1.25H15.78C19.97 1.25 21.25 2.6 21.25 7.04V18.3C21.25 20.51 20.34 21.2 19.8 21.42C19.27 21.63 18.17 21.75 16.72 20.21C16.48 19.95 16.18 19.81 15.87 19.84C15.57 19.86 15.28 20.02 15.07 20.3L14.06 21.65C13.54 22.35 12.78 22.75 12 22.75ZM8.08 18.33C8.12 18.33 8.17 18.33 8.21 18.33C8.95 18.37 9.65 18.76 10.12 19.39L11.13 20.74C11.62 21.39 12.37 21.39 12.86 20.74L13.87 19.39C14.35 18.76 15.04 18.37 15.79 18.33C16.53 18.29 17.27 18.6 17.81 19.18C18.57 19.99 19.06 20.09 19.24 20.02C19.48 19.92 19.74 19.34 19.74 18.3V7.04C19.74 3.43 19.11 2.75 15.77 2.75H8.22C4.88 2.75 4.25 3.43 4.25 7.04V18.3C4.25 19.35 4.51 19.93 4.75 20.02C4.92 20.09 5.42 19.99 6.18 19.18C6.72 18.63 7.39 18.33 8.08 18.33Z" />
<path d="M16.23 11.75H10.73C10.32 11.75 9.97998 11.41 9.97998 11C9.97998 10.59 10.32 10.25 10.73 10.25H16.23C16.64 10.25 16.98 10.59 16.98 11C16.98 11.41 16.64 11.75 16.23 11.75Z" />
<path d="M16.23 7.75H10.73C10.32 7.75 9.97998 7.41 9.97998 7C9.97998 6.59 10.32 6.25 10.73 6.25H16.23C16.64 6.25 16.98 6.59 16.98 7C16.98 7.41 16.64 7.75 16.23 7.75Z" />
<path d="M7.77979 8C7.22979 8 6.77979 7.55 6.77979 7C6.77979 6.45 7.22979 6 7.77979 6C8.32979 6 8.77978 6.45 8.77978 7C8.77978 7.55 8.32979 8 7.77979 8Z" />
<path d="M7.77979 12C7.22979 12 6.77979 11.55 6.77979 11C6.77979 10.45 7.22979 10 7.77979 10C8.32979 10 8.77978 10.45 8.77978 11C8.77978 11.55 8.32979 12 7.77979 12Z" />
</svg>

<?xml version="1.0" encoding="UTF-8"?>
<svg width="24" height="24" viewBox="0 0 24 24" xmlns="http://www.w3.org/2000/svg">
 <path d="m12 22.75c-0.78 0-1.54-0.4-2.06-1.1l-1.01-1.35c-0.21-0.28-0.49-0.44-0.79-0.46-0.3-0.01-0.6 0.12-0.84 0.37l-0.57-0.51 0.55 0.51c-1.44 1.54-2.55 1.42-3.08 1.21-0.54-0.21-1.45-0.9-1.45-3.12v-11.26c0-4.44 1.28-5.79 5.47-5.79h7.56c4.19 0 5.47 1.35 5.47 5.79v11.26c0 2.21-0.91 2.9-1.45 3.12-0.53 0.21-1.63 0.33-3.08-1.21-0.24-0.26-0.54-0.4-0.85-0.37-0.3 0.02-0.59 0.18-0.8 0.46l-1.01 1.35c-0.52 0.7-1.28 1.1-2.06 1.1zm-3.92-4.42h0.13c0.74 0.04 1.44 0.43 1.91 1.06l1.01 1.35c0.49 0.65 1.24 0.65 1.73 0l1.01-1.35c0.48-0.63 1.17-1.02 1.92-1.06 0.74-0.04 1.48 0.27 2.02 0.85 0.76 0.81 1.25 0.91 1.43 0.84 0.24-0.1 0.5-0.68 0.5-1.72v-11.26c0-3.61-0.63-4.29-3.97-4.29h-7.55c-3.34 0-3.97 0.68-3.97 4.29v11.26c0 1.05 0.26 1.63 0.5 1.72 0.17 0.07 0.67-0.03 1.43-0.84 0.54-0.55 1.21-0.85 1.9-0.85z"/>
 <path d="m16.23 11.75h-5.5c-0.41 0-0.75002-0.34-0.75002-0.75s0.34002-0.75 0.75002-0.75h5.5c0.41 0 0.75 0.34 0.75 0.75s-0.34 0.75-0.75 0.75z"/>
 <path d="m16.23 7.75h-5.5c-0.41 0-0.75002-0.34-0.75002-0.75s0.34002-0.75 0.75002-0.75h5.5c0.41 0 0.75 0.34 0.75 0.75s-0.34 0.75-0.75 0.75z"/>
 <path d="m7.7798 8c-0.55 0-1-0.45-1-1s0.45-1 1-1 0.99999 0.45 0.99999 1-0.44999 1-0.99999 1z"/>
 <path d="m7.7798 12c-0.55 0-1-0.45-1-1s0.45-1 1-1 0.99999 0.45 0.99999 1-0.44999 1-0.99999 1z"/>
</svg>
